X:7170
T:The Open Door
R:strathspey, (AEAE tuning)
C:Paul S. Cranford
D:The Lighthouse, Cranford Publications
B:The Lighthouse Collection, ISBN 0-9691181-5-5 (scordatura notation)
N:Contacts ...
N:..... Cranford Publications <http://www.cranfordpub.com>
Q:288
O:England
L:1/8
M:C
K:A
A,>e d/c/B/A/ F>EE<A|F>AE>A C>B,B,<C|A,>e d/c/B/A/ F>EA>E|D>EC<E B,2 B,/C/B,=
|
A,>e d/c/B/A/ F>EE<A|F>AE>A C>B,B,<C|A,>e d/c/B/A/ d/c/B/A/ F>c|d<ec<A B2|]
B/c/B|A>e d/c/B/A/ a>Ac<e|a<ag>e f>ec<e|A>e d/c/B/A/ a>Ac<e|d<ec>A B>AF<A|
A,>e d/c/B/A/ a>Ac<e|a<ag>e f>ec<e|d<ec>A d/c/B/A/ B>c|d<ec>A B>AF<A|]


